X: 8363
T: Countryman's, The
R: reel
M: 4/4
K: Cdorian
|:dc|B2df bfdf|edcB AcFE|DFBD FBcd|edcB AcFA|
B2df bfdf|edcB AcFE|DFBD FBcd|ecAc B2:|
FE|D2FB dFBF|DFBF dFBF|E2GB eBGB|EGBG eGBG|
D2FB dFBF|DFBF dFBF|AceA ceAc|eAce AceA|
D2FB dFBF|DFBF dFBF|E2GB eBGB|EGBG eGBG|
D2FB dFBF|DFBF dFBF|AceA ceAc|ecAc B2||

